dist/images/svg/partner-1.svg

<svg width="152" height="147" viewBox="0 0 152 147" fill="none" xmlns="http://www.w3.org/2000/svg">
<path d="M144.08 141.667H7.92001C6.17001 141.667 4.76001 140.247 4.76001 138.507V8.80697C4.76001 7.05697 6.18001 5.64697 7.92001 5.64697H144.08C145.83 5.64697 147.24 7.06697 147.24 8.80697V138.507C147.24 140.257 145.82 141.667 144.08 141.667Z" fill="white"/>
<mask id="mask0_22_819" style="mask-type:luminance" maskUnits="userSpaceOnUse" x="4" y="5" width="144" height="138">
<path d="M147.64 5.24707H4.36011V142.067H147.64V5.24707Z" fill="white"/>
</mask>
<g mask="url(#mask0_22_819)">
<path d="M144.08 141.667H7.92001C6.17001 141.667 4.76001 140.247 4.76001 138.507V8.80697C4.76001 7.05697 6.18001 5.64697 7.92001 5.64697H144.08C145.83 5.64697 147.24 7.06697 147.24 8.80697V138.507C147.24 140.257 145.82 141.667 144.08 141.667Z" stroke="#5F6368" stroke-width="0.79" stroke-miterlimit="10"/>
</g>
<path d="M29.88 103.637C29.07 103.167 28.43 102.527 27.95 101.707C27.47 100.887 27.24 99.9772 27.24 98.9872C27.24 97.9972 27.48 97.0872 27.95 96.2672C28.42 95.4472 29.07 94.8072 29.88 94.3372C30.69 93.8672 31.58 93.6372 32.54 93.6372C33.29 93.6372 34 93.7672 34.66 94.0372C35.32 94.3072 35.87 94.6772 36.3 95.1672L35.43 96.0372C35.11 95.6372 34.69 95.3272 34.19 95.1172C33.68 94.9072 33.14 94.7972 32.56 94.7972C31.84 94.7972 31.16 94.9672 30.54 95.3172C29.92 95.6672 29.42 96.1572 29.04 96.7872C28.66 97.4172 28.48 98.1572 28.48 98.9872C28.48 99.8172 28.67 100.547 29.04 101.187C29.41 101.827 29.92 102.307 30.55 102.657C31.18 103.007 31.85 103.177 32.57 103.177C33.29 103.177 33.83 103.067 34.29 102.857C34.75 102.647 35.15 102.357 35.48 102.007C35.73 101.737 35.93 101.417 36.08 101.037C36.23 100.657 36.33 100.247 36.37 99.7872H32.58V98.6572H37.5C37.55 98.9272 37.57 99.1672 37.57 99.3972C37.57 100.027 37.47 100.637 37.27 101.237C37.07 101.837 36.75 102.357 36.31 102.807C35.37 103.827 34.11 104.337 32.55 104.337C31.59 104.337 30.7 104.107 29.89 103.637H29.88ZM40.57 103.827C40 103.487 39.55 103.017 39.23 102.427C38.91 101.837 38.75 101.187 38.75 100.467C38.75 99.7472 38.91 99.0972 39.23 98.5072C39.55 97.9172 40 97.4472 40.57 97.1072C41.14 96.7672 41.79 96.5972 42.5 96.5972C43.21 96.5972 43.86 96.7672 44.43 97.1072C45 97.4472 45.45 97.9172 45.77 98.5072C46.09 99.0972 46.25 99.7472 46.25 100.467C46.25 101.187 46.09 101.837 45.77 102.427C45.45 103.017 45 103.487 44.43 103.827C43.86 104.167 43.21 104.337 42.5 104.337C41.79 104.337 41.14 104.167 40.57 103.827ZM43.75 102.907C44.14 102.687 44.45 102.357 44.68 101.937C44.91 101.517 45.03 101.027 45.03 100.467C45.03 99.9072 44.91 99.4172 44.68 98.9972C44.45 98.5772 44.14 98.2572 43.75 98.0372C43.36 97.8172 42.95 97.6972 42.5 97.6972C42.05 97.6972 41.63 97.8072 41.24 98.0372C40.85 98.2572 40.54 98.5872 40.3 98.9972C40.07 99.4172 39.95 99.9072 39.95 100.467C39.95 101.027 40.07 101.517 40.3 101.937C40.53 102.357 40.85 102.677 41.24 102.907C41.63 103.127 42.05 103.247 42.5 103.247C42.95 103.247 43.37 103.137 43.75 102.907ZM49.08 103.827C48.51 103.487 48.06 103.017 47.74 102.427C47.42 101.837 47.26 101.187 47.26 100.467C47.26 99.7472 47.42 99.0972 47.74 98.5072C48.06 97.9172 48.51 97.4472 49.08 97.1072C49.65 96.7672 50.3 96.5972 51.01 96.5972C51.72 96.5972 52.37 96.7672 52.94 97.1072C53.51 97.4472 53.96 97.9172 54.28 98.5072C54.6 99.0972 54.76 99.7472 54.76 100.467C54.76 101.187 54.6 101.837 54.28 102.427C53.96 103.017 53.51 103.487 52.94 103.827C52.37 104.167 51.72 104.337 51.01 104.337C50.3 104.337 49.65 104.167 49.08 103.827ZM52.26 102.907C52.65 102.687 52.96 102.357 53.19 101.937C53.42 101.517 53.54 101.027 53.54 100.467C53.54 99.9072 53.42 99.4172 53.19 98.9972C52.96 98.5772 52.65 98.2572 52.26 98.0372C51.87 97.8172 51.46 97.6972 51.01 97.6972C50.56 97.6972 50.14 97.8072 49.75 98.0372C49.36 98.2572 49.05 98.5872 48.81 98.9972C48.58 99.4172 48.46 99.9072 48.46 100.467C48.46 101.027 48.58 101.517 48.81 101.937C49.04 102.357 49.36 102.677 49.75 102.907C50.14 103.127 50.56 103.247 51.01 103.247C51.46 103.247 51.88 103.137 52.26 102.907ZM57.24 106.827C56.68 106.427 56.31 105.947 56.12 105.387L57.22 104.917C57.38 105.337 57.65 105.677 58.03 105.937C58.41 106.197 58.85 106.327 59.37 106.327C60.12 106.327 60.71 106.117 61.12 105.697C61.53 105.277 61.74 104.677 61.74 103.897V103.087H61.68C61.44 103.457 61.11 103.757 60.67 103.997C60.24 104.227 59.74 104.347 59.19 104.347C58.56 104.347 57.99 104.187 57.47 103.857C56.95 103.527 56.54 103.067 56.23 102.487C55.92 101.897 55.77 101.227 55.77 100.477C55.77 99.7272 55.92 99.0672 56.23 98.4772C56.54 97.8872 56.95 97.4272 57.47 97.0972C57.99 96.7672 58.56 96.6072 59.19 96.6072C59.74 96.6072 60.24 96.7272 60.67 96.9572C61.1 97.1872 61.44 97.4972 61.68 97.8772H61.74V96.8372H62.9V103.847C62.9 105.017 62.58 105.917 61.93 106.527C61.28 107.137 60.43 107.447 59.37 107.447C58.51 107.447 57.8 107.247 57.25 106.847L57.24 106.827ZM60.56 102.907C60.92 102.687 61.2 102.367 61.42 101.947C61.63 101.527 61.74 101.037 61.74 100.467C61.74 99.8972 61.63 99.3872 61.42 98.9672C61.21 98.5472 60.92 98.2372 60.56 98.0172C60.2 97.7972 59.8 97.6872 59.37 97.6872C58.94 97.6872 58.53 97.7972 58.17 98.0172C57.81 98.2372 57.52 98.5572 57.3 98.9772C57.09 99.3972 56.98 99.8872 56.98 100.457C56.98 101.027 57.09 101.527 57.3 101.947C57.51 102.367 57.8 102.687 58.17 102.907C58.54 103.127 58.93 103.237 59.37 103.237C59.81 103.237 60.21 103.127 60.56 102.907ZM64.69 93.8772H65.91V104.117H64.69V93.8772ZM69.08 103.847C68.53 103.517 68.1 103.057 67.79 102.467C67.48 101.877 67.33 101.217 67.33 100.487C67.33 99.7572 67.48 99.1372 67.77 98.5372C68.06 97.9472 68.47 97.4772 69.01 97.1172C69.54 96.7672 70.16 96.5872 70.87 96.5872C71.58 96.5872 72.2 96.7472 72.73 97.0672C73.25 97.3872 73.66 97.8272 73.94 98.3872C74.22 98.9472 74.36 99.5972 74.36 100.317C74.36 100.457 74.35 100.587 74.32 100.687H68.56C68.59 101.237 68.72 101.707 68.96 102.087C69.2 102.467 69.5 102.757 69.87 102.947C70.24 103.137 70.62 103.237 71.02 103.237C71.95 103.237 72.67 102.797 73.18 101.917L74.21 102.417C73.9 103.007 73.47 103.477 72.93 103.817C72.39 104.157 71.74 104.327 70.98 104.327C70.28 104.327 69.66 104.157 69.11 103.827L69.08 103.847ZM73.06 99.6972C73.04 99.3972 72.95 99.0872 72.8 98.7772C72.65 98.4772 72.41 98.2172 72.08 98.0072C71.75 97.7972 71.34 97.6972 70.84 97.6972C70.27 97.6972 69.78 97.8772 69.39 98.2472C68.99 98.6172 68.73 99.0972 68.61 99.6972H73.06ZM78.75 93.8772H82.2C82.77 93.8772 83.3 94.0072 83.79 94.2672C84.28 94.5272 84.66 94.8872 84.96 95.3472C85.25 95.8072 85.4 96.3272 85.4 96.9172C85.4 97.5072 85.25 98.0172 84.96 98.4872C84.67 98.9472 84.28 99.3072 83.79 99.5672C83.3 99.8272 82.77 99.9572 82.2 99.9572H79.95V104.137H78.75V93.8972V93.8772ZM82.23 98.7772C82.61 98.7772 82.95 98.6872 83.24 98.5072C83.53 98.3272 83.76 98.0972 83.92 97.8072C84.08 97.5172 84.16 97.2172 84.16 96.9072C84.16 96.5972 84.08 96.2972 83.92 96.0072C83.76 95.7172 83.53 95.4872 83.24 95.3072C82.95 95.1272 82.61 95.0372 82.23 95.0372H79.96V98.7872H82.23V98.7772ZM87.84 104.027C87.42 103.817 87.1 103.527 86.87 103.157C86.64 102.787 86.53 102.377 86.53 101.907C86.53 101.137 86.82 100.527 87.4 100.097C87.98 99.6672 88.72 99.4472 89.6 99.4472C90.04 99.4472 90.45 99.4972 90.82 99.5872C91.2 99.6872 91.49 99.7972 91.69 99.9172V99.4772C91.69 98.9372 91.5 98.4972 91.12 98.1672C90.74 97.8372 90.26 97.6772 89.68 97.6772C89.27 97.6772 88.89 97.7672 88.55 97.9372C88.21 98.1172 87.94 98.3572 87.74 98.6772L86.82 97.9872C87.11 97.5472 87.5 97.2072 88 96.9572C88.5 96.7072 89.06 96.5872 89.67 96.5872C90.66 96.5872 91.44 96.8472 92.01 97.3672C92.58 97.8872 92.86 98.5972 92.86 99.4872V104.107H91.7V103.067H91.64C91.43 103.417 91.12 103.717 90.7 103.967C90.28 104.217 89.81 104.337 89.28 104.337C88.75 104.337 88.27 104.237 87.85 104.027H87.84ZM90.53 102.957C90.88 102.747 91.16 102.467 91.37 102.117C91.58 101.767 91.68 101.377 91.68 100.957C91.45 100.807 91.17 100.677 90.84 100.587C90.51 100.497 90.15 100.447 89.78 100.447C89.11 100.447 88.61 100.587 88.27 100.867C87.93 101.147 87.76 101.497 87.76 101.937C87.76 102.337 87.91 102.657 88.22 102.907C88.53 103.157 88.91 103.277 89.38 103.277C89.79 103.277 90.17 103.177 90.52 102.967L90.53 102.957ZM94.33 96.9372H95.49V98.0972H95.55C95.72 97.6672 96.01 97.3372 96.42 97.0972C96.83 96.8572 97.28 96.7372 97.76 96.7372C97.97 96.7372 98.15 96.7472 98.29 96.7772V98.0172C98.13 97.9772 97.91 97.9572 97.63 97.9572C97.01 97.9572 96.51 98.1672 96.12 98.5672C95.73 98.9772 95.54 99.5072 95.54 100.167V104.217H94.32V96.9272L94.33 96.9372ZM101.73 104.197C101.48 104.097 101.27 103.967 101.09 103.807C100.9 103.627 100.76 103.407 100.66 103.167C100.56 102.927 100.52 102.627 100.52 102.277V97.9272H99.25V96.8272H100.52V94.7672H101.73V96.8272H103.5V97.9272H101.73V101.987C101.73 102.397 101.81 102.697 101.96 102.897C102.14 103.107 102.4 103.217 102.75 103.217C103.03 103.217 103.29 103.137 103.55 102.977V104.167C103.41 104.237 103.26 104.277 103.11 104.307C102.96 104.337 102.77 104.347 102.55 104.347C102.25 104.347 101.98 104.297 101.73 104.197ZM104.9 96.8172H106.06V97.8872H106.12C106.32 97.5272 106.64 97.2172 107.08 96.9672C107.52 96.7172 107.99 96.5872 108.48 96.5872C109.36 96.5872 110.03 96.8372 110.49 97.3472C110.95 97.8572 111.18 98.5472 111.18 99.4272V104.107H109.96V99.6172C109.96 98.9372 109.8 98.4472 109.47 98.1472C109.15 97.8472 108.7 97.6872 108.14 97.6872C107.75 97.6872 107.4 97.7972 107.09 98.0172C106.78 98.2372 106.54 98.5272 106.37 98.8872C106.2 99.2472 106.11 99.6172 106.11 100.007V104.107H104.89V96.8172H104.9ZM114.29 103.837C113.74 103.507 113.31 103.047 113 102.457C112.69 101.867 112.54 101.207 112.54 100.477C112.54 99.7472 112.69 99.1272 112.98 98.5272C113.27 97.9372 113.68 97.4672 114.22 97.1072C114.76 96.7472 115.37 96.5772 116.08 96.5772C116.79 96.5772 117.41 96.7372 117.94 97.0572C118.47 97.3772 118.87 97.8172 119.15 98.3772C119.43 98.9372 119.57 99.5872 119.57 100.307C119.57 100.447 119.56 100.577 119.53 100.677H113.77C113.8 101.227 113.93 101.697 114.17 102.077C114.41 102.457 114.71 102.747 115.08 102.937C115.45 103.127 115.83 103.227 116.23 103.227C117.16 103.227 117.88 102.787 118.39 101.907L119.42 102.407C119.1 102.997 118.68 103.467 118.14 103.807C117.6 104.147 116.95 104.317 116.19 104.317C115.49 104.317 114.87 104.147 114.32 103.817L114.29 103.837ZM118.27 99.6872C118.25 99.3872 118.16 99.0772 118.01 98.7672C117.86 98.4672 117.62 98.2072 117.29 97.9972C116.96 97.7872 116.55 97.6872 116.05 97.6872C115.48 97.6872 114.99 97.8672 114.6 98.2372C114.2 98.6072 113.94 99.0872 113.82 99.6872H118.27ZM120.96 96.8172H122.12V97.9872H122.18C122.32 97.5872 122.6 97.2572 123.01 96.9872C123.42 96.7172 123.85 96.5872 124.3 96.5872C124.63 96.5872 124.92 96.6372 125.16 96.7472V98.0472C124.85 97.8972 124.51 97.8172 124.13 97.8172C123.78 97.8172 123.45 97.9172 123.16 98.1172C122.86 98.3172 122.63 98.5872 122.45 98.9272C122.27 99.2672 122.19 99.6272 122.19 100.027V104.107H120.97V96.8172H120.96Z" fill="#5F6368" stroke="#5F6368" stroke-width="0.25" stroke-miterlimit="10"/>
<path d="M97.0099 60.5474C97.0099 59.0174 96.7699 57.5474 96.5199 56.1274H76.3999V64.4674H87.6899C87.1899 67.1674 85.9099 69.4574 83.6199 70.9974V76.4374H90.6099C94.6799 72.6774 97.0199 67.1174 97.0199 60.5474H97.0099Z" fill="#4284F4"/>
<path d="M76.3301 81.6472C82.1401 81.6472 87.0301 79.7372 90.6001 76.4372L83.6101 70.9972C81.6901 72.2972 79.2201 73.0572 76.3301 73.0572C70.7301 73.0572 65.9701 69.2672 64.2701 64.1572H57.0901V69.7472C60.6301 76.8072 67.9101 81.6472 76.3301 81.6472Z" fill="#34A853"/>
<path d="M64.2801 64.1674C63.8501 62.8674 63.6101 61.4874 63.6101 60.0574C63.6101 58.6274 63.8501 57.2474 64.2801 55.9474V50.3574H57.1001C55.6401 53.2774 54.8101 56.5674 54.8101 60.0574C54.8101 63.5474 55.6401 66.8374 57.1001 69.7574L64.2801 64.1674Z" fill="#FBBC04"/>
<path d="M76.3301 47.047C79.4901 47.047 82.3301 48.137 84.5701 50.277L90.7401 44.087C87.0101 40.597 82.1401 38.457 76.3301 38.457C67.9201 38.457 60.6301 43.297 57.0901 50.357L64.2701 55.947C65.9701 50.837 70.7201 47.047 76.3301 47.047Z" fill="#EA4335"/>
</svg>

<svg width="152" height="147" fill="none" xmlns="http://www.w3.org/2000/svg"><path d="M144.08 141.667H7.92a3.16 3.16 0 0 1-3.16-3.16V8.807a3.16 3.16 0 0 1 3.16-3.16h136.16a3.16 3.16 0 0 1 3.16 3.16v129.7a3.16 3.16 0 0 1-3.16 3.16Z" fill="#fff"/><mask id="a" style="mask-type:luminance" maskUnits="userSpaceOnUse" x="4" y="5" width="144" height="138"><path d="M147.64 5.247H4.36v136.82h143.28V5.247Z" fill="#fff"/></mask><g mask="url(#a)"><path d="M144.08 141.667H7.92a3.16 3.16 0 0 1-3.16-3.16V8.807a3.16 3.16 0 0 1 3.16-3.16h136.16a3.16 3.16 0 0 1 3.16 3.16v129.7a3.16 3.16 0 0 1-3.16 3.16Z" stroke="#5F6368" stroke-width=".79" stroke-miterlimit="10"/></g><path d="M29.88 103.637a5.255 5.255 0 0 1-1.93-1.93c-.48-.82-.71-1.73-.71-2.72 0-.99.24-1.9.71-2.72.47-.82 1.12-1.46 1.93-1.93.81-.47 1.7-.7 2.66-.7.75 0 1.46.13 2.12.4.66.27 1.21.64 1.64 1.13l-.87.87c-.32-.4-.74-.71-1.24-.92a4.23 4.23 0 0 0-1.63-.32c-.72 0-1.4.17-2.02.52-.62.35-1.12.84-1.5 1.47-.38.63-.56 1.37-.56 2.2 0 .83.19 1.56.56 2.2.37.64.88 1.12 1.51 1.47.63.35 1.3.52 2.02.52s1.26-.11 1.72-.32c.46-.21.86-.5 1.19-.85.25-.27.45-.59.6-.97.15-.38.25-.79.29-1.25h-3.79v-1.13h4.92c.05.27.07.51.07.74 0 .63-.1 1.24-.3 1.84-.2.6-.52 1.12-.96 1.57-.94 1.02-2.2 1.53-3.76 1.53-.96 0-1.85-.23-2.66-.7h-.01Zm10.69.19c-.57-.34-1.02-.81-1.34-1.4-.32-.59-.48-1.24-.48-1.96s.16-1.37.48-1.96c.32-.59.77-1.06 1.34-1.4.57-.34 1.22-.51 1.93-.51s1.36.17 1.93.51c.57.34 1.02.81 1.34 1.4.32.59.48 1.24.48 1.96s-.16 1.37-.48 1.96c-.32.59-.77 1.06-1.34 1.4-.57.34-1.22.51-1.93.51s-1.36-.17-1.93-.51Zm3.18-.92c.39-.22.7-.55.93-.97.23-.42.35-.91.35-1.47 0-.56-.12-1.05-.35-1.47a2.39 2.39 0 0 0-.93-.96c-.39-.22-.8-.34-1.25-.34-.45 0-.87.11-1.26.34-.39.22-.7.55-.94.96-.23.42-.35.91-.35 1.47 0 .56.12 1.05.35 1.47a2.507 2.507 0 0 0 2.2 1.31c.45 0 .87-.11 1.25-.34Zm5.33.92c-.57-.34-1.02-.81-1.34-1.4-.32-.59-.48-1.24-.48-1.96s.16-1.37.48-1.96c.32-.59.77-1.06 1.34-1.4.57-.34 1.22-.51 1.93-.51s1.36.17 1.93.51c.57.34 1.02.81 1.34 1.4.32.59.48 1.24.48 1.96s-.16 1.37-.48 1.96c-.32.59-.77 1.06-1.34 1.4-.57.34-1.22.51-1.93.51s-1.36-.17-1.93-.51Zm3.18-.92c.39-.22.7-.55.93-.97.23-.42.35-.91.35-1.47 0-.56-.12-1.05-.35-1.47a2.39 2.39 0 0 0-.93-.96c-.39-.22-.8-.34-1.25-.34-.45 0-.87.11-1.26.34-.39.22-.7.55-.94.96-.23.42-.35.91-.35 1.47 0 .56.12 1.05.35 1.47a2.507 2.507 0 0 0 2.2 1.31c.45 0 .87-.11 1.25-.34Zm4.98 3.92c-.56-.4-.93-.88-1.12-1.44l1.1-.47c.16.42.43.76.81 1.02.38.26.82.39 1.34.39.75 0 1.34-.21 1.75-.63.41-.42.62-1.02.62-1.8v-.81h-.06c-.24.37-.57.67-1.01.91-.43.23-.93.35-1.48.35-.63 0-1.2-.16-1.72-.49-.52-.33-.93-.79-1.24-1.37-.31-.59-.46-1.26-.46-2.01 0-.75.15-1.41.46-2 .31-.59.72-1.05 1.24-1.38.52-.33 1.09-.49 1.72-.49.55 0 1.05.12 1.48.35.43.23.77.54 1.01.92h.06v-1.04h1.16v7.01c0 1.17-.32 2.07-.97 2.68-.65.61-1.5.92-2.56.92-.86 0-1.57-.2-2.12-.6l-.01-.02Zm3.32-3.92c.36-.22.64-.54.86-.96.21-.42.32-.91.32-1.48s-.11-1.08-.32-1.5c-.21-.42-.5-.73-.86-.95-.36-.22-.76-.33-1.19-.33-.43 0-.84.11-1.2.33-.36.22-.65.54-.87.96-.21.42-.32.91-.32 1.48s.11 1.07.32 1.49c.21.42.5.74.87.96.37.22.76.33 1.2.33.44 0 .84-.11 1.19-.33Zm4.13-9.03h1.22v10.24h-1.22v-10.24Zm4.39 9.97c-.55-.33-.98-.79-1.29-1.38-.31-.59-.46-1.25-.46-1.98s.15-1.35.44-1.95c.29-.59.7-1.06 1.24-1.42.53-.35 1.15-.53 1.86-.53.71 0 1.33.16 1.86.48.52.32.93.76 1.21 1.32.28.56.42 1.21.42 1.93 0 .14-.01.27-.04.37h-5.76c.03.55.16 1.02.4 1.4.24.38.54.67.91.86.37.19.75.29 1.15.29.93 0 1.65-.44 2.16-1.32l1.03.5c-.31.59-.74 1.06-1.28 1.4-.54.34-1.19.51-1.95.51-.7 0-1.32-.17-1.87-.5l-.03.02Zm3.98-4.15c-.02-.3-.11-.61-.26-.92-.15-.3-.39-.56-.72-.77-.33-.21-.74-.31-1.24-.31-.57 0-1.06.18-1.45.55-.4.37-.66.85-.78 1.45h4.45Zm5.69-5.82h3.45c.57 0 1.1.13 1.59.39s.87.62 1.17 1.08c.29.46.44.98.44 1.57 0 .59-.15 1.1-.44 1.57-.29.46-.68.82-1.17 1.08-.49.26-1.02.39-1.59.39h-2.25v4.18h-1.2v-10.26Zm3.48 4.9a1.9 1.9 0 0 0 1.69-.97c.16-.29.24-.59.24-.9 0-.31-.08-.61-.24-.9a1.9 1.9 0 0 0-1.69-.97h-2.27v3.75h2.27v-.01Zm5.61 5.25c-.42-.21-.74-.5-.97-.87a2.3 2.3 0 0 1-.34-1.25c0-.77.29-1.38.87-1.81.58-.43 1.32-.65 2.2-.65.44 0 .85.05 1.22.14.38.1.67.21.87.33v-.44c0-.54-.19-.98-.57-1.31-.38-.33-.86-.49-1.44-.49-.41 0-.79.09-1.13.26-.34.18-.61.42-.81.74l-.92-.69c.29-.44.68-.78 1.18-1.03.5-.25 1.06-.37 1.67-.37.99 0 1.77.26 2.34.78.57.52.85 1.23.85 2.12v4.62H91.7v-1.04h-.06c-.21.35-.52.65-.94.9-.42.25-.89.37-1.42.37-.53 0-1.01-.1-1.43-.31h-.01Zm2.69-1.07c.35-.21.63-.49.84-.84.21-.35.31-.74.31-1.16-.23-.15-.51-.28-.84-.37a4.05 4.05 0 0 0-1.06-.14c-.67 0-1.17.14-1.51.42-.34.28-.51.63-.51 1.07 0 .4.15.72.46.97.31.25.69.37 1.16.37.41 0 .79-.1 1.14-.31l.01-.01Zm3.8-6.02h1.16v1.16h.06c.17-.43.46-.76.87-1s.86-.36 1.34-.36c.21 0 .39.01.53.04v1.24c-.16-.04-.38-.06-.66-.06-.62 0-1.12.21-1.51.61-.39.41-.58.94-.58 1.6v4.05h-1.22v-7.29l.01.01Zm7.4 7.26c-.25-.1-.46-.23-.64-.39-.19-.18-.33-.4-.43-.64-.1-.24-.14-.54-.14-.89v-4.35h-1.27v-1.1h1.27v-2.06h1.21v2.06h1.77v1.1h-1.77v4.06c0 .41.08.71.23.91.18.21.44.32.79.32.28 0 .54-.08.8-.24v1.19c-.14.07-.29.11-.44.14-.15.03-.34.04-.56.04-.3 0-.57-.05-.82-.15Zm3.17-7.38h1.16v1.07h.06c.2-.36.52-.67.96-.92.44-.25.91-.38 1.4-.38.88 0 1.55.25 2.01.76.46.51.69 1.2.69 2.08v4.68h-1.22v-4.49c0-.68-.16-1.17-.49-1.47-.32-.3-.77-.46-1.33-.46-.39 0-.74.11-1.05.33-.31.22-.55.51-.72.87-.17.36-.26.73-.26 1.12v4.1h-1.22v-7.29h.01Zm9.39 7.02c-.55-.33-.98-.79-1.29-1.38-.31-.59-.46-1.25-.46-1.98s.15-1.35.44-1.95c.29-.59.7-1.06 1.24-1.42.54-.36 1.15-.53 1.86-.53.71 0 1.33.16 1.86.48.53.32.93.76 1.21 1.32.28.56.42 1.21.42 1.93 0 .14-.01.27-.04.37h-5.76c.03.55.16 1.02.4 1.4.24.38.54.67.91.86.37.19.75.29 1.15.29.93 0 1.65-.44 2.16-1.32l1.03.5c-.32.59-.74 1.06-1.28 1.4-.54.34-1.19.51-1.95.51-.7 0-1.32-.17-1.87-.5l-.03.02Zm3.98-4.15c-.02-.3-.11-.61-.26-.92-.15-.3-.39-.56-.72-.77-.33-.21-.74-.31-1.24-.31-.57 0-1.06.18-1.45.55-.4.37-.66.85-.78 1.45h4.45Zm2.69-2.87h1.16v1.17h.06c.14-.4.42-.73.83-1s.84-.4 1.29-.4c.33 0 .62.05.86.16v1.3c-.31-.15-.65-.23-1.03-.23-.35 0-.68.1-.97.3-.3.2-.53.47-.71.81-.18.34-.26.7-.26 1.1v4.08h-1.22v-7.29h-.01Z" fill="#5F6368" stroke="#5F6368" stroke-width=".25" stroke-miterlimit="10"/><path d="M97.01 60.547c0-1.53-.24-3-.49-4.42H76.4v8.34h11.29c-.5 2.7-1.78 4.99-4.07 6.53v5.44h6.99c4.07-3.76 6.41-9.32 6.41-15.89h-.01Z" fill="#4284F4"/><path d="M76.33 81.647c5.81 0 10.7-1.91 14.27-5.21l-6.99-5.44c-1.92 1.3-4.39 2.06-7.28 2.06-5.6 0-10.36-3.79-12.06-8.9h-7.18v5.59c3.54 7.06 10.82 11.9 19.24 11.9Z" fill="#34A853"/><path d="M64.28 64.167c-.43-1.3-.67-2.68-.67-4.11 0-1.43.24-2.81.67-4.11v-5.59H57.1a21.621 21.621 0 0 0-2.29 9.7c0 3.49.83 6.78 2.29 9.7l7.18-5.59Z" fill="#FBBC04"/><path d="M76.33 47.047c3.16 0 6 1.09 8.24 3.23l6.17-6.19c-3.73-3.49-8.6-5.63-14.41-5.63-8.41 0-15.7 4.84-19.24 11.9l7.18 5.59c1.7-5.11 6.45-8.9 12.06-8.9Z" fill="#EA4335"/></svg>
